packages/core/src/svgs/tokens/branded/SHA.svg

<svg width="24" height="24" viewBox="0 0 24 24" fill="none" xmlns="http://www.w3.org/2000/svg">
<path d="M12.2496 2.04477C12.0216 1.96364 11.8314 2.01106 11.7639 2.04477C9.51219 2.85525 7.2616 3.66906 5.01221 4.48619C4.73797 4.59075 4.57227 4.82101 4.57227 4.97755V11.2683C4.57227 15.1866 5.61499 17.1053 6.80342 18.5245C9.12029 21.0082 11.5491 21.7978 11.7679 21.9413C11.9296 22.0475 12.1639 21.9858 12.2611 21.9413C14.3808 21.0099 16.2806 19.5826 17.1833 18.5245C18.9683 16.431 19.4277 14.5569 19.4277 11.2676V4.92156C19.4277 4.66674 19.1774 4.52505 19.0522 4.48561L12.2496 2.04477Z" fill="url(#paint0_linear_364_11830)"/>
<path d="M12.2307 2.61385C12.0198 2.53729 11.8438 2.58185 11.7822 2.61385C9.70357 3.37785 7.6261 4.14499 5.5498 4.91529C5.29611 5.01356 5.14355 5.23068 5.14355 5.37809V11.3088C5.14355 15.0032 6.10573 16.8116 7.20331 18.1497C9.34188 20.4912 11.5833 21.2356 11.7856 21.3711C11.9348 21.4711 12.1513 21.4128 12.241 21.3711C14.1973 20.4929 15.9508 19.1479 16.7844 18.1497C18.4322 16.1768 18.8562 14.4096 18.8562 11.3088V5.32552C18.8562 5.08555 18.6248 4.95186 18.5094 4.91472C16.5039 4.17938 12.4415 2.69041 12.2307 2.61385Z" fill="url(#paint1_linear_364_11830)"/>
<path d="M12.2112 3.18291C12.0182 3.11092 11.857 3.15264 11.8004 3.18291C9.89481 3.90068 7.99024 4.62135 6.0868 5.34495C5.85483 5.43694 5.71484 5.64091 5.71484 5.77917V11.3505C5.71484 14.8209 6.59703 16.5202 7.60262 17.7766C9.56298 19.9763 11.6182 20.6762 11.8032 20.8031C11.9404 20.8974 12.1387 20.8425 12.2209 20.8031C14.0144 19.978 15.6217 18.7142 16.3856 17.7766C17.8957 15.923 18.2847 14.2632 18.2847 11.3505V5.73118C18.2847 5.50549 18.0734 5.3798 17.967 5.34551L12.2112 3.18291Z" fill="url(#paint2_linear_364_11830)"/>
<path d="M12.8341 10.9254C13.1656 10.7408 13.4267 10.4512 13.576 10.1022C13.7253 9.75315 13.7545 9.3644 13.659 8.99699C13.5637 8.62957 13.3489 8.3042 13.0487 8.07198C12.7483 7.83974 12.3795 7.71377 11.9998 7.71382C11.6214 7.71353 11.2536 7.83847 10.9535 8.06917C10.6535 8.29986 10.4384 8.62332 10.3416 8.98913C10.2446 9.35493 10.2716 9.74248 10.4181 10.0915C10.5646 10.4404 10.8224 10.731 11.1513 10.9181L10.2857 14.5702H13.714L12.8341 10.9254Z" fill="url(#paint3_linear_364_11830)"/>
<defs>
<linearGradient id="paint0_linear_364_11830" x1="11.9999" y1="2.00021" x2="11.9999" y2="22.0001" gradientUnits="userSpaceOnUse">
<stop stop-color="#132368"/>
<stop offset="1" stop-color="#B02CBC"/>
</linearGradient>
<linearGradient id="paint1_linear_364_11830" x1="11.9998" y1="2.00003" x2="11.9998" y2="22.0002" gradientUnits="userSpaceOnUse">
<stop stop-color="#F8F9FB"/>
<stop offset="1" stop-color="#AF2CBB"/>
</linearGradient>
<linearGradient id="paint2_linear_364_11830" x1="11.9998" y1="1.99982" x2="11.9998" y2="21.9999" gradientUnits="userSpaceOnUse">
<stop stop-color="#1B246C"/>
<stop offset="0.496" stop-color="#A27DC3"/>
<stop offset="1" stop-color="#FAEFFD"/>
</linearGradient>
<linearGradient id="paint3_linear_364_11830" x1="12.0088" y1="7.7958" x2="12.0088" y2="14.6704" gradientUnits="userSpaceOnUse">
<stop stop-color="#31237B"/>
<stop offset="1" stop-color="#72259E"/>
</linearGradient>
</defs>
</svg>

<svg xmlns="http://www.w3.org/2000/svg" width="24" height="24" fill="none" viewBox="0 0 24 24">
    <path fill="url(#SHA__a)" d="M12.25 2.045a.67.67 0 0 0-.486 0Q8.387 3.26 5.012 4.486c-.274.105-.44.335-.44.492v6.29c0 3.919 1.043 5.837 2.231 7.256 2.317 2.484 4.746 3.274 4.965 3.417.162.107.396.045.493 0 2.12-.931 4.02-2.358 4.922-3.416 1.785-2.094 2.245-3.968 2.245-7.257V4.922c0-.255-.25-.397-.376-.436z"/>
    <path fill="url(#SHA__b)" d="M12.23 2.614a.6.6 0 0 0-.448 0Q8.665 3.76 5.55 4.915c-.254.099-.406.316-.406.463v5.93c0 3.695.962 5.504 2.06 6.842 2.138 2.341 4.38 3.086 4.582 3.221.149.1.365.042.455 0 1.956-.878 3.71-2.223 4.543-3.221 1.648-1.973 2.072-3.74 2.072-6.841V5.326c0-.24-.231-.374-.347-.411-2.005-.736-6.068-2.225-6.278-2.301"/>
    <path fill="url(#SHA__c)" d="M12.211 3.183a.54.54 0 0 0-.41 0Q8.942 4.26 6.086 5.345c-.232.092-.372.296-.372.434v5.572c0 3.47.882 5.17 1.888 6.426 1.96 2.2 4.015 2.9 4.2 3.026.137.094.336.04.418 0 1.793-.825 3.4-2.089 4.165-3.026 1.51-1.854 1.899-3.514 1.899-6.427V5.732c0-.226-.212-.351-.318-.385z"/>
    <path fill="url(#SHA__d)" d="M12.834 10.925a1.714 1.714 0 1 0-1.683-.007l-.865 3.652h3.428z"/>
    <defs>
        <linearGradient id="SHA__a" x1="12" x2="12" y1="2" y2="22" gradientUnits="userSpaceOnUse">
            <stop stop-color="#132368"/>
            <stop offset="1" stop-color="#B02CBC"/>
        </linearGradient>
        <linearGradient id="SHA__b" x1="12" x2="12" y1="2" y2="22" gradientUnits="userSpaceOnUse">
            <stop stop-color="#F8F9FB"/>
            <stop offset="1" stop-color="#AF2CBB"/>
        </linearGradient>
        <linearGradient id="SHA__c" x1="12" x2="12" y1="2" y2="22" gradientUnits="userSpaceOnUse">
            <stop stop-color="#1B246C"/>
            <stop offset=".496" stop-color="#A27DC3"/>
            <stop offset="1" stop-color="#FAEFFD"/>
        </linearGradient>
        <linearGradient id="SHA__d" x1="12.009" x2="12.009" y1="7.796" y2="14.67" gradientUnits="userSpaceOnUse">
            <stop stop-color="#31237B"/>
            <stop offset="1" stop-color="#72259E"/>
        </linearGradient>
    </defs>
</svg>
